Newaita-dark/apps/32/toggldesktop.svg

<svg height="32" viewBox="0 0 32 32" width="32" xmlns="http://www.w3.org/2000/svg" xmlns:xlink="http://www.w3.org/1999/xlink"><linearGradient id="a"><stop offset="0" stop-opacity=".313726"/><stop offset=".222222" stop-opacity=".27451"/><stop offset="1" stop-opacity="0"/></linearGradient><radialGradient id="b" cx="450.908936" cy="189.579361" gradientTransform="matrix(.00000017 -.0781325 -.140638 -.0000001 44.523152 63.595329)" gradientUnits="userSpaceOnUse" r="21.166656" xlink:href="#a"/><radialGradient id="c" cx="450.908936" cy="189.579361" gradientTransform="matrix(-.00000017 .0781325 .140638 .0000001 -12.770119 -7.527482)" gradientUnits="userSpaceOnUse" r="21.166656" xlink:href="#a"/><radialGradient id="d" cx="450.908936" cy="189.579361" gradientTransform="matrix(-.00000017 -.0781325 .140638 -.0000001 -12.770119 63.595329)" gradientUnits="userSpaceOnUse" r="21.166656" xlink:href="#a"/><radialGradient id="e" cx="450.908936" cy="189.579361" gradientTransform="matrix(.00000017 .0781325 -.140638 .0000001 44.52315 -7.527483)" gradientUnits="userSpaceOnUse" r="21.166656" xlink:href="#a"/><linearGradient id="f" gradientTransform="matrix(.0133601 0 0 .062506 12.465386 13.438784)" gradientUnits="userSpaceOnUse" x1="255.323059" x2="255.323044" y1="233.5" y2="254.666656"><stop offset="0" stop-opacity=".27451"/><stop offset="1" stop-opacity="0"/></linearGradient><linearGradient id="g" gradientUnits="userSpaceOnUse" x1="254" x2="254" y1="-168.666672" y2="233.5"><stop offset="0" stop-color="#ef5350"/><stop offset="1" stop-color="#f44336"/></linearGradient><linearGradient id="h" gradientUnits="userSpaceOnUse" x1="15.87648" x2="15.87648" y1="28.03386419623" y2="2.89610343548"><stop offset="0" stop-color="#bdbdbd"/><stop offset="1" stop-color="#e0e0e0"/></linearGradient><path d="m18.191406 28.035156h2.648438v-1.324218h-2.648438zm0 0" fill="url(#b)"/><path d="m13.5625 28.035156h-2.648438v1.320313h2.648438zm0 0" fill="url(#c)"/><path d="m13.5625 28.035156h-2.648438v-1.324218h2.648438zm0 0" fill="url(#d)"/><path d="m18.191406 28.035156h2.648438v1.320313h-2.648438zm0 0" fill="url(#e)"/><path d="m13.5625 27.703125h4.628906v1.652344h-4.628906zm0 0" fill="url(#f)"/><path d="m253.975747-168.691922c111.051895 0 201.105795 90.0539 201.105795 201.105795s-90.0539 201.105796-201.105795 201.105796c-111.051896 0-201.043302-90.053901-201.043302-201.105796s89.991406-201.105795 201.043302-201.105795zm0 0" fill="url(#g)" stroke="#333" stroke-linecap="round" stroke-width="3" transform="matrix(.062506 0 0 .062506 0 13.438783)"/><path d="m15.875 28.035156c-6.960938 0-12.566406-5.605468-12.566406-12.570312 0-.039063 0-.082032 0-.121094.066406 6.902344 5.644531 12.445312 12.566406 12.445312s12.503906-5.542968 12.570312-12.445312v.121094c0 6.964844-5.605468 12.570312-12.570312 12.570312zm0 0" fill-opacity=".196078"/><path d="m15.875 2.894531c-6.960938 0-12.566406 5.605469-12.566406 12.570313v.125c.066406-6.90625 5.644531-12.449219 12.566406-12.449219s12.503906 5.542969 12.570312 12.449219c0-.042969 0-.082032 0-.125 0-6.964844-5.605468-12.570313-12.570312-12.570313zm0 0" fill="#fff" fill-opacity=".392157"/><path d="m15.875 2.800781c-7.011719 0-12.660156 5.652344-12.660156 12.664063 0 7.011718 5.648437 12.664062 12.660156 12.664062 7.015625 0 12.664062-5.652344 12.664062-12.664062 0-7.011719-5.648437-12.664063-12.664062-12.664063zm0 .1875c6.914062 0 12.476562 5.5625 12.476562 12.476563 0 6.914062-5.5625 12.476562-12.476562 12.476562-6.910156 0-12.472656-5.5625-12.472656-12.476562 0-6.914063 5.5625-12.476563 12.472656-12.476563zm0 0" fill="#212121"/><path d="m15.875 8.1875c-.363281 0-.660156.296875-.660156.664062v6.613282c0 .367187.296875.660156.660156.660156.367188 0 .664062-.292969.664062-.660156v-6.613282c0-.367187-.296874-.664062-.664062-.664062zm-1.320312 1.46875c-2.660157.601562-4.632813 2.964844-4.632813 5.808594 0 3.296875 2.65625 5.953125 5.953125 5.953125 3.300781 0 5.957031-2.65625 5.957031-5.953125 0-2.84375-1.976562-5.207032-4.632812-5.808594v1.367188c1.917969.566406 3.308593 2.335937 3.308593 4.441406 0 2.566406-2.066406 4.628906-4.632812 4.628906-2.5625 0-4.628906-2.0625-4.628906-4.628906 0-2.105469 1.390625-3.875 3.308594-4.441406zm0 0" fill="url(#h)"/><path d="m15.875 8.1875c-.363281 0-.660156.296875-.660156.664062v.328126c0-.367188.296875-.660157.660156-.660157.367188 0 .664062.292969.664062.660157v-.328126c0-.367187-.296874-.664062-.664062-.664062zm-1.320312 1.46875c-2.660157.601562-4.632813 2.964844-4.632813 5.808594 0 .054687 0 .113281.003906.167968.074219-2.769531 2.019531-5.058593 4.628907-5.644531zm2.644531 0v.332031c2.605469.585938 4.554687 2.875 4.628906 5.644531 0-.054687.003906-.113281.003906-.167968 0-2.84375-1.976562-5.207032-4.632812-5.808594zm-5.949219 5.972656c-.003906.054688-.003906.109375-.003906.167969 0 2.5625 2.066406 4.628906 4.628906 4.628906 2.566406 0 4.632812-2.066406 4.632812-4.628906 0-.058594 0-.113281-.003906-.167969-.085937 2.488282-2.117187 4.464844-4.628906 4.464844-2.507812 0-4.539062-1.976562-4.625-4.464844zm0 0" fill="#fff"/><path d="m14.554688 11.097656c-1.820313.535156-3.164063 2.15625-3.296876 4.117188-.003906-.023438-.003906-.050782-.003906-.074219-.003906.082031-.007812.164063-.007812.25 0 .105469.003906.214844.011718.320313.132813-1.960938 1.476563-3.582032 3.296876-4.117188zm2.644531 0v.496094c1.816406.535156 3.164062 2.15625 3.296875 4.117188.007812-.105469.011718-.214844.011718-.320313 0-.085937-.003906-.167969-.007812-.25 0 .023437-.003906.050781-.003906.074219-.132813-1.960938-1.480469-3.582032-3.296875-4.117188zm-1.984375 4.441406v.496094c0 .363282.296875.660156.660156.660156.367188 0 .664062-.296874.664062-.660156v-.496094c0 .363282-.296874.660157-.664062.660157-.363281 0-.660156-.296875-.660156-.660157zm-5.285156.25c-.003907.082032-.007813.160157-.007813.246094 0 3.296875 2.65625 5.953125 5.953125 5.953125 3.300781 0 5.957031-2.65625 5.957031-5.953125 0-.085937-.003906-.164062-.007812-.246094-.128907 3.179688-2.734375 5.703126-5.949219 5.703126-3.210938 0-5.816406-2.523438-5.945312-5.703126zm0 0" fill-opacity=".235294"/><path d="m959.908384 495.070859c-21.966408 0-39.91745 17.951043-39.91745 40.153648v399.883094c0 22.202606 17.951042 39.91745 39.91745 39.91745 22.202605 0 40.153648-17.714844 40.153648-39.91745v-399.883094c0-22.202605-17.951043-40.153648-40.153648-40.153648zm-79.8349 88.810422c-160.85079 36.374481-280.130744 179.274228-280.130744 351.22632 0 199.351052 160.614592 359.965644 359.965644 359.965644 199.58725 0 360.201842-160.614592 360.201842-359.965644 0-171.952092-119.516152-314.851839-280.130744-351.22632v82.669275c115.973183 34.2487 200.059646 141.246361 200.059646 268.557045 0 155.18204-124.948705 279.894546-280.130744 279.894546-154.945842 0-279.894546-124.712506-279.894546-279.894546 0-127.310684 84.086463-234.308345 200.059646-268.557045zm0 0" fill="none" stroke="#212121" stroke-linecap="round" stroke-linejoin="round" stroke-width="11.338583" transform="scale(.016538)"/></svg>

<?xml version="1.0" encoding="UTF-8"?>
<svg xmlns="http://www.w3.org/2000/svg" xmlns:xlink="http://www.w3.org/1999/xlink" width="32px" height="32px" viewBox="0 0 32 32" version="1.1">
<defs>
<radialGradient id="radial0" gradientUnits="userSpaceOnUse" cx="450.908936" cy="189.579361" fx="450.908936" fy="189.579361" r="21.166656" gradientTransform="matrix(0.00000017417,-0.0781325,-0.140638,-0.000000101539,44.523152,63.595329)">
<stop offset="0" style="stop-color:rgb(0%,0%,0%);stop-opacity:0.313726;"/>
<stop offset="0.222222" style="stop-color:rgb(0%,0%,0%);stop-opacity:0.27451;"/>
<stop offset="1" style="stop-color:rgb(0%,0%,0%);stop-opacity:0;"/>
</radialGradient>
<radialGradient id="radial1" gradientUnits="userSpaceOnUse" cx="450.908936" cy="189.579361" fx="450.908936" fy="189.579361" r="21.166656" gradientTransform="matrix(-0.00000017417,0.0781325,0.140638,0.000000101539,-12.770119,-7.527482)">
<stop offset="0" style="stop-color:rgb(0%,0%,0%);stop-opacity:0.313726;"/>
<stop offset="0.222222" style="stop-color:rgb(0%,0%,0%);stop-opacity:0.27451;"/>
<stop offset="1" style="stop-color:rgb(0%,0%,0%);stop-opacity:0;"/>
</radialGradient>
<radialGradient id="radial2" gradientUnits="userSpaceOnUse" cx="450.908936" cy="189.579361" fx="450.908936" fy="189.579361" r="21.166656" gradientTransform="matrix(-0.00000017417,-0.0781325,0.140638,-0.000000101539,-12.770119,63.595329)">
<stop offset="0" style="stop-color:rgb(0%,0%,0%);stop-opacity:0.313726;"/>
<stop offset="0.222222" style="stop-color:rgb(0%,0%,0%);stop-opacity:0.27451;"/>
<stop offset="1" style="stop-color:rgb(0%,0%,0%);stop-opacity:0;"/>
</radialGradient>
<radialGradient id="radial3" gradientUnits="userSpaceOnUse" cx="450.908936" cy="189.579361" fx="450.908936" fy="189.579361" r="21.166656" gradientTransform="matrix(0.00000017417,0.0781325,-0.140638,0.000000101539,44.52315,-7.527483)">
<stop offset="0" style="stop-color:rgb(0%,0%,0%);stop-opacity:0.313726;"/>
<stop offset="0.222222" style="stop-color:rgb(0%,0%,0%);stop-opacity:0.27451;"/>
<stop offset="1" style="stop-color:rgb(0%,0%,0%);stop-opacity:0;"/>
</radialGradient>
<linearGradient id="linear0" gradientUnits="userSpaceOnUse" x1="255.323059" y1="233.5" x2="255.323044" y2="254.666656" gradientTransform="matrix(0.0133601,0,0,0.062506,12.465386,13.438784)">
<stop offset="0" style="stop-color:rgb(0%,0%,0%);stop-opacity:0.27451;"/>
<stop offset="1" style="stop-color:rgb(0%,0%,0%);stop-opacity:0;"/>
</linearGradient>
<linearGradient id="linear1" gradientUnits="userSpaceOnUse" x1="254" y1="-168.666672" x2="254" y2="233.5" >
<stop offset="0" style="stop-color:rgb(93.725491%,32.549021%,31.37255%);stop-opacity:1;"/>
<stop offset="1" style="stop-color:rgb(95.686275%,26.274511%,21.176471%);stop-opacity:1;"/>
</linearGradient>
<linearGradient id="linear2" gradientUnits="userSpaceOnUse" x1="960" y1="1695.118164" x2="960" y2="175.118118" gradientTransform="matrix(0.016538,0,0,0.016538,0,0)">
<stop offset="0" style="stop-color:rgb(74.117649%,74.117649%,74.117649%);stop-opacity:1;"/>
<stop offset="1" style="stop-color:rgb(87.843138%,87.843138%,87.843138%);stop-opacity:1;"/>
</linearGradient>
</defs>
<g id="surface1">
<path style=" stroke:none;fill-rule:nonzero;fill:url(#radial0);" d="M 18.191406 28.035156 L 20.839844 28.035156 L 20.839844 26.710938 L 18.191406 26.710938 Z M 18.191406 28.035156 "/>
<path style=" stroke:none;fill-rule:nonzero;fill:url(#radial1);" d="M 13.5625 28.035156 L 10.914062 28.035156 L 10.914062 29.355469 L 13.5625 29.355469 Z M 13.5625 28.035156 "/>
<path style=" stroke:none;fill-rule:nonzero;fill:url(#radial2);" d="M 13.5625 28.035156 L 10.914062 28.035156 L 10.914062 26.710938 L 13.5625 26.710938 Z M 13.5625 28.035156 "/>
<path style=" stroke:none;fill-rule:nonzero;fill:url(#radial3);" d="M 18.191406 28.035156 L 20.839844 28.035156 L 20.839844 29.355469 L 18.191406 29.355469 Z M 18.191406 28.035156 "/>
<path style=" stroke:none;fill-rule:nonzero;fill:url(#linear0);" d="M 13.5625 27.703125 L 18.191406 27.703125 L 18.191406 29.355469 L 13.5625 29.355469 Z M 13.5625 27.703125 "/>
<path style="fill-rule:nonzero;fill:url(#linear1);stroke-width:3;stroke-linecap:round;stroke-linejoin:miter;stroke:rgb(20%,20%,20%);stroke-opacity:1;stroke-miterlimit:4;" d="M 253.975747 -168.691922 C 365.027642 -168.691922 455.081542 -78.638022 455.081542 32.413873 C 455.081542 143.465768 365.027642 233.519669 253.975747 233.519669 C 142.923851 233.519669 52.932445 143.465768 52.932445 32.413873 C 52.932445 -78.638022 142.923851 -168.691922 253.975747 -168.691922 Z M 253.975747 -168.691922 " transform="matrix(0.062506,0,0,0.062506,0,13.438783)"/>
<path style=" stroke:none;fill-rule:nonzero;fill:rgb(0%,0%,0%);fill-opacity:0.196078;" d="M 15.875 28.035156 C 8.914062 28.035156 3.308594 22.429688 3.308594 15.464844 C 3.308594 15.425781 3.308594 15.382812 3.308594 15.34375 C 3.375 22.246094 8.953125 27.789062 15.875 27.789062 C 22.796875 27.789062 28.378906 22.246094 28.445312 15.34375 C 28.445312 15.382812 28.445312 15.425781 28.445312 15.464844 C 28.445312 22.429688 22.839844 28.035156 15.875 28.035156 Z M 15.875 28.035156 "/>
<path style=" stroke:none;fill-rule:nonzero;fill:rgb(100%,100%,100%);fill-opacity:0.392157;" d="M 15.875 2.894531 C 8.914062 2.894531 3.308594 8.5 3.308594 15.464844 C 3.308594 15.507812 3.308594 15.546875 3.308594 15.589844 C 3.375 8.683594 8.953125 3.140625 15.875 3.140625 C 22.796875 3.140625 28.378906 8.683594 28.445312 15.589844 C 28.445312 15.546875 28.445312 15.507812 28.445312 15.464844 C 28.445312 8.5 22.839844 2.894531 15.875 2.894531 Z M 15.875 2.894531 "/>
<path style=" stroke:none;fill-rule:nonzero;fill:rgb(12.941177%,12.941177%,12.941177%);fill-opacity:1;" d="M 15.875 2.800781 C 8.863281 2.800781 3.214844 8.453125 3.214844 15.464844 C 3.214844 22.476562 8.863281 28.128906 15.875 28.128906 C 22.890625 28.128906 28.539062 22.476562 28.539062 15.464844 C 28.539062 8.453125 22.890625 2.800781 15.875 2.800781 Z M 15.875 2.988281 C 22.789062 2.988281 28.351562 8.550781 28.351562 15.464844 C 28.351562 22.378906 22.789062 27.941406 15.875 27.941406 C 8.964844 27.941406 3.402344 22.378906 3.402344 15.464844 C 3.402344 8.550781 8.964844 2.988281 15.875 2.988281 Z M 15.875 2.988281 "/>
<path style=" stroke:none;fill-rule:nonzero;fill:url(#linear2);" d="M 15.875 8.1875 C 15.511719 8.1875 15.214844 8.484375 15.214844 8.851562 L 15.214844 15.464844 C 15.214844 15.832031 15.511719 16.125 15.875 16.125 C 16.242188 16.125 16.539062 15.832031 16.539062 15.464844 L 16.539062 8.851562 C 16.539062 8.484375 16.242188 8.1875 15.875 8.1875 Z M 14.554688 9.65625 C 11.894531 10.257812 9.921875 12.621094 9.921875 15.464844 C 9.921875 18.761719 12.578125 21.417969 15.875 21.417969 C 19.175781 21.417969 21.832031 18.761719 21.832031 15.464844 C 21.832031 12.621094 19.855469 10.257812 17.199219 9.65625 L 17.199219 11.023438 C 19.117188 11.589844 20.507812 13.359375 20.507812 15.464844 C 20.507812 18.03125 18.441406 20.09375 15.875 20.09375 C 13.3125 20.09375 11.246094 18.03125 11.246094 15.464844 C 11.246094 13.359375 12.636719 11.589844 14.554688 11.023438 Z M 14.554688 9.65625 "/>
<path style=" stroke:none;fill-rule:nonzero;fill:rgb(100%,100%,100%);fill-opacity:1;" d="M 15.875 8.1875 C 15.511719 8.1875 15.214844 8.484375 15.214844 8.851562 L 15.214844 9.179688 C 15.214844 8.8125 15.511719 8.519531 15.875 8.519531 C 16.242188 8.519531 16.539062 8.8125 16.539062 9.179688 L 16.539062 8.851562 C 16.539062 8.484375 16.242188 8.1875 15.875 8.1875 Z M 14.554688 9.65625 C 11.894531 10.257812 9.921875 12.621094 9.921875 15.464844 C 9.921875 15.519531 9.921875 15.578125 9.925781 15.632812 C 10 12.863281 11.945312 10.574219 14.554688 9.988281 Z M 17.199219 9.65625 L 17.199219 9.988281 C 19.804688 10.574219 21.753906 12.863281 21.828125 15.632812 C 21.828125 15.578125 21.832031 15.519531 21.832031 15.464844 C 21.832031 12.621094 19.855469 10.257812 17.199219 9.65625 Z M 11.25 15.628906 C 11.246094 15.683594 11.246094 15.738281 11.246094 15.796875 C 11.246094 18.359375 13.3125 20.425781 15.875 20.425781 C 18.441406 20.425781 20.507812 18.359375 20.507812 15.796875 C 20.507812 15.738281 20.507812 15.683594 20.503906 15.628906 C 20.417969 18.117188 18.386719 20.09375 15.875 20.09375 C 13.367188 20.09375 11.335938 18.117188 11.25 15.628906 Z M 11.25 15.628906 "/>
<path style=" stroke:none;fill-rule:nonzero;fill:rgb(0%,0%,0%);fill-opacity:0.235294;" d="M 14.554688 11.097656 C 12.734375 11.632812 11.390625 13.253906 11.257812 15.214844 C 11.253906 15.191406 11.253906 15.164062 11.253906 15.140625 C 11.25 15.222656 11.246094 15.304688 11.246094 15.390625 C 11.246094 15.496094 11.25 15.605469 11.257812 15.710938 C 11.390625 13.75 12.734375 12.128906 14.554688 11.59375 Z M 17.199219 11.097656 L 17.199219 11.59375 C 19.015625 12.128906 20.363281 13.75 20.496094 15.710938 C 20.503906 15.605469 20.507812 15.496094 20.507812 15.390625 C 20.507812 15.304688 20.503906 15.222656 20.5 15.140625 C 20.5 15.164062 20.496094 15.191406 20.496094 15.214844 C 20.363281 13.253906 19.015625 11.632812 17.199219 11.097656 Z M 15.214844 15.539062 L 15.214844 16.035156 C 15.214844 16.398438 15.511719 16.695312 15.875 16.695312 C 16.242188 16.695312 16.539062 16.398438 16.539062 16.035156 L 16.539062 15.539062 C 16.539062 15.902344 16.242188 16.199219 15.875 16.199219 C 15.511719 16.199219 15.214844 15.902344 15.214844 15.539062 Z M 9.929688 15.789062 C 9.925781 15.871094 9.921875 15.949219 9.921875 16.035156 C 9.921875 19.332031 12.578125 21.988281 15.875 21.988281 C 19.175781 21.988281 21.832031 19.332031 21.832031 16.035156 C 21.832031 15.949219 21.828125 15.871094 21.824219 15.789062 C 21.695312 18.96875 19.089844 21.492188 15.875 21.492188 C 12.664062 21.492188 10.058594 18.96875 9.929688 15.789062 Z M 9.929688 15.789062 "/>
<path style="fill:none;stroke-width:11.338583;stroke-linecap:round;stroke-linejoin:round;stroke:rgb(12.941177%,12.941177%,12.941177%);stroke-opacity:1;stroke-miterlimit:4;" d="M 959.908384 495.070859 C 937.941976 495.070859 919.990934 513.021902 919.990934 535.224507 L 919.990934 935.107601 C 919.990934 957.310207 937.941976 975.025051 959.908384 975.025051 C 982.110989 975.025051 1000.062032 957.310207 1000.062032 935.107601 L 1000.062032 535.224507 C 1000.062032 513.021902 982.110989 495.070859 959.908384 495.070859 Z M 880.073484 583.881281 C 719.222694 620.255762 599.94274 763.155509 599.94274 935.107601 C 599.94274 1134.458653 760.557332 1295.073245 959.908384 1295.073245 C 1159.495634 1295.073245 1320.110226 1134.458653 1320.110226 935.107601 C 1320.110226 763.155509 1200.594074 620.255762 1039.979482 583.881281 L 1039.979482 666.550556 C 1155.952665 700.799256 1240.039128 807.796917 1240.039128 935.107601 C 1240.039128 1090.289641 1115.090423 1215.002147 959.908384 1215.002147 C 804.962542 1215.002147 680.013838 1090.289641 680.013838 935.107601 C 680.013838 807.796917 764.100301 700.799256 880.073484 666.550556 Z M 880.073484 583.881281 " transform="matrix(0.016538,0,0,0.016538,0,0)"/>
</g>
</svg>
